flaticon/wild-west/cowboy-hat-1.svg

<svg xmlns="http://www.w3.org/2000/svg" width="32" height="32" viewBox="0 0 24 24">
    <path d="M 23.902344 14.570312 C 23.523438 12.824219 22.148438 11.601562 20.371094 11.402344 L 20.367188 11.171875 C 20.351562 9.675781 20.339844 8.828125 20.320312 8.65625 C 20.089844 6.636719 17.917969 4.679688 16.035156 4.117188 C 14.996094 3.808594 13.820312 4.136719 13.039062 4.960938 C 12.878906 5.132812 12.730469 5.371094 12.570312 5.625 C 12.09375 6.390625 11.808594 6.726562 11.46875 6.578125 C 11.140625 6.4375 10.878906 6.03125 10.664062 5.652344 C 10.421875 5.222656 10.121094 4.875 9.765625 4.613281 C 8.675781 3.8125 8.101562 3.886719 7.023438 4.492188 C 5.3125 5.457031 4.21875 8.980469 4.21875 10.980469 L 4.21875 11.375 C 4.003906 11.363281 3.800781 11.367188 3.597656 11.378906 C 1.988281 11.488281 0.78125 12.5625 0.203125 14.402344 C -0.214844 15.734375 0.0195312 17.144531 0.84375 18.269531 C 1.648438 19.367188 2.878906 19.996094 4.21875 19.996094 L 11.359375 19.996094 C 13.25 19.996094 14.121094 19.667969 15.707031 19.070312 L 16.0625 18.9375 C 16.351562 18.828125 16.65625 18.804688 16.953125 18.863281 C 17.246094 18.921875 17.5625 19.050781 17.898438 19.1875 C 18.761719 19.535156 19.832031 19.96875 21.269531 19.578125 L 21.355469 19.542969 C 23.328125 18.476562 24.328125 16.523438 23.902344 14.570312 Z M 5.027344 10.980469 C 5.027344 9.195312 6.03125 5.980469 7.421875 5.195312 C 7.835938 4.960938 8.101562 4.832031 8.363281 4.832031 C 8.628906 4.832031 8.886719 4.96875 9.289062 5.265625 C 9.550781 5.457031 9.777344 5.71875 9.960938 6.050781 C 10.257812 6.570312 10.601562 7.082031 11.148438 7.320312 C 12.1875 7.769531 12.832031 6.738281 13.257812 6.050781 C 13.390625 5.835938 13.519531 5.628906 13.625 5.515625 C 14.199219 4.914062 15.054688 4.667969 15.804688 4.890625 C 17.40625 5.367188 19.328125 7.070312 19.519531 8.746094 C 19.539062 8.917969 19.554688 10.445312 19.5625 11.179688 L 19.5625 11.371094 C 19.523438 11.375 19.480469 11.378906 19.4375 11.382812 C 19.363281 11.386719 19.292969 11.394531 19.21875 11.402344 C 19.140625 11.410156 19.0625 11.417969 18.980469 11.429688 C 18.910156 11.441406 18.839844 11.453125 18.765625 11.464844 C 18.6875 11.480469 18.613281 11.496094 18.535156 11.515625 C 18.464844 11.53125 18.394531 11.546875 18.328125 11.566406 C 18.25 11.585938 18.175781 11.609375 18.101562 11.632812 C 18.03125 11.65625 17.964844 11.675781 17.898438 11.699219 C 17.824219 11.726562 17.753906 11.753906 17.679688 11.785156 C 17.613281 11.8125 17.546875 11.839844 17.484375 11.867188 C 17.414062 11.898438 17.34375 11.933594 17.273438 11.96875 C 17.210938 12 17.148438 12.03125 17.085938 12.066406 C 17.015625 12.105469 16.949219 12.144531 16.882812 12.183594 C 16.824219 12.222656 16.761719 12.257812 16.703125 12.296875 C 16.640625 12.339844 16.578125 12.382812 16.515625 12.429688 C 16.457031 12.472656 16.398438 12.511719 16.34375 12.554688 C 16.28125 12.601562 16.222656 12.652344 16.164062 12.703125 C 16.109375 12.75 16.054688 12.792969 16.003906 12.839844 C 15.945312 12.890625 15.890625 12.949219 15.835938 13.003906 C 15.785156 13.050781 15.734375 13.101562 15.6875 13.152344 C 15.632812 13.207031 15.582031 13.269531 15.53125 13.328125 C 15.484375 13.382812 15.4375 13.433594 15.394531 13.488281 C 15.34375 13.550781 15.296875 13.617188 15.25 13.683594 C 15.210938 13.738281 15.167969 13.789062 15.128906 13.847656 C 15.085938 13.917969 15.042969 13.988281 15 14.058594 C 14.964844 14.117188 14.925781 14.171875 14.894531 14.230469 C 14.851562 14.304688 14.8125 14.382812 14.773438 14.460938 C 14.746094 14.519531 14.714844 14.574219 14.6875 14.632812 C 14.667969 14.671875 14.652344 14.714844 14.636719 14.753906 L 5.027344 14.753906 Z M 7.042969 17.578125 C 6.761719 17.578125 6.488281 17.554688 6.222656 17.519531 C 6.070312 17.476562 5.929688 17.417969 5.796875 17.335938 C 5.820312 17.285156 5.832031 17.230469 5.832031 17.171875 C 5.832031 16.949219 5.652344 16.769531 5.429688 16.769531 C 5.371094 16.769531 5.316406 16.785156 5.265625 16.804688 C 5.117188 16.5625 5.027344 16.28125 5.027344 15.972656 L 5.027344 15.558594 C 5.027344 15.78125 5.207031 15.964844 5.429688 15.964844 C 5.652344 15.964844 5.832031 15.78125 5.832031 15.558594 L 6.640625 15.558594 C 6.640625 15.78125 6.820312 15.964844 7.042969 15.964844 C 7.265625 15.964844 7.445312 15.78125 7.445312 15.558594 L 8.253906 15.558594 C 8.253906 15.78125 8.433594 15.964844 8.65625 15.964844 C 8.878906 15.964844 9.058594 15.78125 9.058594 15.558594 L 9.867188 15.558594 C 9.867188 15.78125 10.046875 15.964844 10.269531 15.964844 C 10.492188 15.964844 10.675781 15.78125 10.675781 15.558594 L 11.480469 15.558594 C 11.480469 15.78125 11.660156 15.964844 11.882812 15.964844 C 12.105469 15.964844 12.289062 15.78125 12.289062 15.558594 L 13.09375 15.558594 C 13.09375 15.78125 13.277344 15.964844 13.5 15.964844 C 13.722656 15.964844 13.902344 15.78125 13.902344 15.558594 L 14.347656 15.558594 C 14.335938 15.605469 14.320312 15.652344 14.304688 15.699219 C 14.289062 15.746094 14.273438 15.792969 14.257812 15.835938 C 14.238281 15.886719 14.214844 15.9375 14.191406 15.984375 C 14.027344 16.035156 13.902344 16.183594 13.902344 16.367188 C 13.902344 16.410156 13.914062 16.449219 13.925781 16.484375 C 13.847656 16.601562 13.765625 16.714844 13.679688 16.816406 C 13.625 16.789062 13.5625 16.769531 13.5 16.769531 C 13.277344 16.769531 13.09375 16.949219 13.09375 17.171875 C 13.09375 17.230469 13.105469 17.28125 13.125 17.328125 C 13.050781 17.382812 12.976562 17.433594 12.894531 17.480469 L 12.683594 17.578125 Z M 4.21875 19.191406 C 3.140625 19.191406 2.148438 18.679688 1.492188 17.792969 C 0.820312 16.875 0.632812 15.730469 0.972656 14.644531 C 1.308594 13.582031 2.042969 12.292969 3.652344 12.1875 C 3.761719 12.179688 3.871094 12.175781 3.984375 12.175781 C 4.058594 12.175781 4.136719 12.175781 4.21875 12.183594 L 4.21875 15.972656 C 4.21875 16.292969 4.285156 16.601562 4.398438 16.878906 C 3.550781 16.363281 3.007812 15.601562 3.007812 14.753906 C 3.007812 14.53125 2.828125 14.347656 2.605469 14.347656 C 2.382812 14.347656 2.203125 14.53125 2.203125 14.753906 C 2.203125 16.480469 3.824219 17.929688 5.988281 18.292969 C 6.117188 18.332031 6.246094 18.359375 6.382812 18.371094 C 6.464844 18.378906 6.546875 18.382812 6.628906 18.382812 L 11.148438 18.382812 L 9.894531 19.191406 Z M 21.011719 18.8125 C 19.859375 19.113281 19.019531 18.769531 18.203125 18.441406 C 18.183594 18.433594 18.164062 18.425781 18.148438 18.417969 C 18.613281 18.1875 18.886719 17.890625 19.035156 17.632812 C 19.289062 17.1875 19.316406 16.652344 19.109375 16.199219 C 19.015625 15.996094 18.777344 15.90625 18.574219 16 C 18.371094 16.089844 18.285156 16.332031 18.375 16.535156 C 18.476562 16.75 18.460938 17.011719 18.335938 17.230469 C 18.101562 17.632812 17.515625 17.898438 16.6875 17.980469 C 16.628906 17.988281 16.578125 18.003906 16.527344 18.03125 C 16.273438 18.042969 16.019531 18.089844 15.777344 18.183594 L 15.421875 18.316406 C 13.910156 18.886719 13.132812 19.175781 11.464844 19.1875 L 12.636719 18.484375 L 12.855469 18.382812 L 12.859375 18.382812 L 13.246094 18.207031 L 13.28125 18.191406 C 13.507812 18.058594 13.71875 17.90625 13.914062 17.734375 C 14.007812 17.648438 14.101562 17.558594 14.191406 17.460938 C 14.632812 16.980469 14.960938 16.382812 15.148438 15.707031 C 15.1875 15.566406 15.230469 15.429688 15.28125 15.296875 L 15.285156 15.285156 C 15.984375 13.433594 17.777344 12.175781 19.789062 12.175781 C 19.859375 12.175781 19.933594 12.179688 20.003906 12.183594 L 20.121094 12.1875 C 21.621094 12.289062 22.796875 13.292969 23.113281 14.742188 C 23.390625 16 22.980469 17.726562 21.011719 18.8125 Z M 21.011719 18.8125"/>
    <path d="M6.640625 16.367188C6.640625 16.589844 6.460938 16.769531 6.238281 16.769531 6.015625 16.769531 5.832031 16.589844 5.832031 16.367188 5.832031 16.144531 6.015625 15.964844 6.238281 15.964844 6.460938 15.964844 6.640625 16.144531 6.640625 16.367188zM7.445312 17.171875C7.445312 17.394531 7.265625 17.578125 7.042969 17.578125 6.820312 17.578125 6.640625 17.394531 6.640625 17.171875 6.640625 16.949219 6.820312 16.769531 7.042969 16.769531 7.265625 16.769531 7.445312 16.949219 7.445312 17.171875zM8.253906 16.367188C8.253906 16.589844 8.074219 16.769531 7.851562 16.769531 7.628906 16.769531 7.445312 16.589844 7.445312 16.367188 7.445312 16.144531 7.628906 15.964844 7.851562 15.964844 8.074219 15.964844 8.253906 16.144531 8.253906 16.367188zM9.0625 17.171875C9.0625 17.394531 8.878906 17.578125 8.65625 17.578125 8.433594 17.578125 8.253906 17.394531 8.253906 17.171875 8.253906 16.949219 8.433594 16.769531 8.65625 16.769531 8.878906 16.769531 9.0625 16.949219 9.0625 17.171875zM9.867188 16.367188C9.867188 16.589844 9.6875 16.769531 9.464844 16.769531 9.242188 16.769531 9.0625 16.589844 9.0625 16.367188 9.0625 16.144531 9.242188 15.964844 9.464844 15.964844 9.6875 15.964844 9.867188 16.144531 9.867188 16.367188zM10.675781 17.171875C10.675781 17.394531 10.492188 17.578125 10.269531 17.578125 10.046875 17.578125 9.867188 17.394531 9.867188 17.171875 9.867188 16.949219 10.046875 16.769531 10.269531 16.769531 10.492188 16.769531 10.675781 16.949219 10.675781 17.171875zM11.480469 16.367188C11.480469 16.589844 11.300781 16.769531 11.078125 16.769531 10.855469 16.769531 10.675781 16.589844 10.675781 16.367188 10.675781 16.144531 10.855469 15.964844 11.078125 15.964844 11.300781 15.964844 11.480469 16.144531 11.480469 16.367188zM12.289062 17.171875C12.289062 17.394531 12.109375 17.578125 11.886719 17.578125 11.660156 17.578125 11.480469 17.394531 11.480469 17.171875 11.480469 16.949219 11.660156 16.769531 11.886719 16.769531 12.109375 16.769531 12.289062 16.949219 12.289062 17.171875zM13.09375 16.367188C13.09375 16.589844 12.914062 16.769531 12.691406 16.769531 12.46875 16.769531 12.289062 16.589844 12.289062 16.367188 12.289062 16.144531 12.46875 15.964844 12.691406 15.964844 12.914062 15.964844 13.09375 16.144531 13.09375 16.367188zM13.09375 16.367188"/>
</svg>

<svg xmlns="http://www.w3.org/2000/svg" width="32" height="32" viewBox="0 0 24 24">
    <path d="M23.902 14.57c-.379-1.746-1.754-2.968-3.53-3.168l-.005-.23c-.015-1.496-.027-2.344-.047-2.516-.23-2.02-2.402-3.976-4.285-4.539-1.039-.308-2.215.02-2.996.844-.16.172-.309.41-.469.664-.476.766-.761 1.102-1.101.953-.328-.14-.59-.547-.805-.926a3.25 3.25 0 0 0-.898-1.039c-1.09-.8-1.664-.726-2.743-.12-1.71.964-2.804 4.487-2.804 6.487v.395a5.473 5.473 0 0 0-.621.004c-1.61.11-2.817 1.184-3.395 3.023a4.303 4.303 0 0 0 .64 3.868 4.153 4.153 0 0 0 3.376 1.726h7.14c1.891 0 2.762-.328 4.348-.926l.355-.133c.29-.109.594-.132.891-.074.293.059.61.188.945.325.864.347 1.934.78 3.372.39l.085-.035c1.973-1.066 2.973-3.02 2.547-4.973zM5.027 10.98c0-1.785 1.004-5 2.395-5.785.414-.234.68-.363.941-.363.266 0 .524.137.926.434.262.191.488.453.672.785.297.52.64 1.031 1.187 1.27 1.04.449 1.684-.583 2.11-1.27.133-.215.262-.422.367-.535.574-.602 1.43-.848 2.18-.625 1.601.476 3.523 2.18 3.715 3.855.02.172.035 1.7.043 2.434v.191a14.4 14.4 0 0 1-.125.012c-.075.004-.145.012-.22.02a5.58 5.58 0 0 0-.238.027l-.214.035a4.868 4.868 0 0 0-.23.05c-.071.016-.141.032-.208.051-.078.02-.152.043-.226.067-.07.023-.137.043-.204.066a9.886 9.886 0 0 0-.414.168c-.07.031-.14.067-.21.102-.063.031-.126.062-.188.097a9.39 9.39 0 0 0-.203.118c-.059.039-.121.074-.18.113-.062.043-.125.086-.187.133-.059.043-.118.082-.172.125-.063.047-.121.097-.18.148-.055.047-.11.09-.16.137-.059.05-.113.11-.168.164a2.66 2.66 0 0 0-.149.148c-.054.055-.105.118-.156.176-.047.055-.094.106-.136.16-.051.063-.098.13-.145.196-.04.054-.082.105-.121.164l-.129.21c-.035.06-.074.114-.105.172a4.283 4.283 0 0 0-.122.23c-.027.06-.058.114-.085.173-.02.039-.036.082-.051.12h-9.61zm2.016 6.598c-.281 0-.555-.023-.82-.058a1.652 1.652 0 0 1-.426-.184.402.402 0 0 0-.531-.531 1.58 1.58 0 0 1-.239-.832v-.414c0 .222.18.406.403.406a.405.405 0 0 0 .402-.406h.809c0 .222.18.406.402.406a.405.405 0 0 0 .402-.406h.809c0 .222.18.406.402.406a.405.405 0 0 0 .403-.406h.808c0 .222.18.406.403.406a.408.408 0 0 0 .406-.406h.804c0 .222.18.406.403.406a.408.408 0 0 0 .406-.406h.805c0 .222.183.406.406.406a.405.405 0 0 0 .402-.406h.446c-.012.046-.028.093-.043.14l-.047.137c-.02.05-.043.101-.067.148-.164.051-.289.2-.289.383 0 .043.012.082.024.117-.078.118-.16.23-.246.332a.41.41 0 0 0-.18-.046.405.405 0 0 0-.375.558 2.352 2.352 0 0 1-.23.152l-.211.098zm-2.824 1.613c-1.078 0-2.07-.511-2.727-1.398a3.502 3.502 0 0 1-.52-3.148c.337-1.063 1.071-2.352 2.68-2.457a4.632 4.632 0 0 1 .567-.004v3.789c0 .32.066.629.18.906-.848-.516-1.391-1.277-1.391-2.125a.405.405 0 0 0-.403-.406.405.405 0 0 0-.402.406c0 1.726 1.621 3.176 3.785 3.539.13.039.258.066.395.078.082.008.164.012.246.012h4.52l-1.254.808zm16.793-.378c-1.153.3-1.992-.043-2.809-.372a.765.765 0 0 1-.055-.023c.465-.23.739-.527.887-.785.254-.445.281-.98.074-1.434a.403.403 0 1 0-.734.336.758.758 0 0 1-.04.695c-.233.403-.82.668-1.648.75a.452.452 0 0 0-.16.051 2.376 2.376 0 0 0-.75.153l-.355.132c-1.512.57-2.29.86-3.957.872l1.172-.704.218-.101h.004l.387-.176.035-.016c.227-.132.438-.285.633-.457.094-.086.188-.175.277-.273.442-.48.77-1.078.957-1.754.04-.14.082-.277.133-.41l.004-.012a4.825 4.825 0 0 1 4.504-3.11c.07 0 .145.005.215.009l.117.004c1.5.101 2.676 1.105 2.992 2.554.278 1.258-.133 2.985-2.101 4.07zm0 0"/>
    <path d="M6.64 16.367a.405.405 0 0 1-.809 0 .405.405 0 0 1 .81 0zm0 0M7.445 17.172c0 .223-.18.406-.402.406a.405.405 0 0 1 0-.808c.223 0 .402.18.402.402zm0 0M8.254 16.367a.405.405 0 0 1-.809 0 .405.405 0 0 1 .809 0zm0 0M9.063 17.172a.408.408 0 0 1-.407.406.405.405 0 0 1 0-.808c.223 0 .406.18.406.402zm0 0M9.867 16.367a.402.402 0 1 1-.803.001.402.402 0 0 1 .803 0zm0 0M10.676 17.172a.408.408 0 0 1-.406.406.405.405 0 0 1 0-.808c.222 0 .406.18.406.402zm0 0M11.48 16.367a.402.402 0 1 1-.803.001.402.402 0 0 1 .803 0zm0 0M12.29 17.172a.405.405 0 1 1-.811.002.405.405 0 0 1 .81-.002zm0 0M13.094 16.367a.402.402 0 1 1-.804.001.402.402 0 0 1 .804 0zm0 0"/>
</svg>
